Catalina-light/actions/16/map-flat.svg

<svg width="16" height="16" viewBox="0 0 16 16" xmlns="http://www.w3.org/2000/svg">
<defs>
<style id="current-color-scheme" type="text/css">.ColorScheme-Text { color:#5c616c; } .ColorScheme-Highlight { color:#5294e2; }</style>
</defs>
<path class="ColorScheme-Text" d="m0 0v16h16v-16h-16zm1 1h4v4h-4v-4zm5 0h4v4h-4v-4zm5 0h4v4h-4v-4zm-10 5h4v4h-4v-4zm5 0h4v4h-4v-4zm5 0h4v4h-4v-4zm-10 5h4v4h-4v-4zm5 0h4v4h-4v-4zm5 0h4v4h-4v-4z" fill="#363636"/>
</svg>

<svg xmlns="http://www.w3.org/2000/svg" width="16" height="16" viewBox="0 0 16 16">
 <defs>
  <style id="current-color-scheme" type="text/css">
   .ColorScheme-Text { color:#5c616c; } .ColorScheme-Highlight { color:#5294e2; }
  </style>
 </defs>
 <path style="fill:currentColor" class="ColorScheme-Text" d="M 0 0 L 0 16 L 16 16 L 16 0 L 0 0 z M 1 1 L 5 1 L 5 5 L 1 5 L 1 1 z M 6 1 L 10 1 L 10 5 L 6 5 L 6 1 z M 11 1 L 15 1 L 15 5 L 11 5 L 11 1 z M 1 6 L 5 6 L 5 10 L 1 10 L 1 6 z M 6 6 L 10 6 L 10 10 L 6 10 L 6 6 z M 11 6 L 15 6 L 15 10 L 11 10 L 11 6 z M 1 11 L 5 11 L 5 15 L 1 15 L 1 11 z M 6 11 L 10 11 L 10 15 L 6 15 L 6 11 z M 11 11 L 15 11 L 15 15 L 11 15 L 11 11 z"/>
</svg>
